assets/icons/regular/folder-closed.svg

<svg xmlns="http://www.w3.org/2000/svg" viewBox="0 0 512 512"><!--! Font Awesome Pro 6.2.0 by @fontawesome - https://fontawesome.com License - https://fontawesome.com/license (Commercial License) Copyright 2022 Fonticons, Inc. --><path d="M448 96h-172.1L226.7 50.75C214.7 38.74 198.5 32 181.5 32H64C28.65 32 0 60.66 0 96v320c0 35.34 28.65 64 64 64h384c35.35 0 64-28.66 64-64V160C512 124.7 483.3 96 448 96zM64 80h117.5c4.273 0 8.293 1.664 11.31 4.688L256 144h192c8.822 0 16 7.176 16 16v32h-416V96C48 87.18 55.18 80 64 80zM448 432H64c-8.822 0-16-7.176-16-16V240h416V416C464 424.8 456.8 432 448 432z"/></svg>

<svg xmlns="http://www.w3.org/2000/svg" viewBox="0 0 512 512"><!--! Font Awesome Free 6.6.0 by @fontawesome - https://fontawesome.com License - https://fontawesome.com/license/free (Icons: CC BY 4.0, Fonts: SIL OFL 1.1, Code: MIT License) Copyright 2024 Fonticons, Inc. --><path d="M251.7 127.6s0 0 0 0c10.5 10.5 24.7 16.4 39.6 16.4L448 144c8.8 0 16 7.2 16 16l0 32L48 192l0-96c0-8.8 7.2-16 16-16l133.5 0c4.2 0 8.3 1.7 11.3 4.7l33.9-33.9L208.8 84.7l42.9 42.9zM48 240l416 0 0 176c0 8.8-7.2 16-16 16L64 432c-8.8 0-16-7.2-16-16l0-176zM285.7 93.7L242.7 50.7c-12-12-28.3-18.7-45.3-18.7L64 32C28.7 32 0 60.7 0 96L0 416c0 35.3 28.7 64 64 64l384 0c35.3 0 64-28.7 64-64l0-256c0-35.3-28.7-64-64-64L291.3 96c-2.1 0-4.2-.8-5.7-2.3z"/></svg>
